X: 12040
T: Erin's
R: hornpipe
M: 4/4
K: Dmajor
(3DDD FD EFGB|(3AAA ec dcAG|FAdA (3Bcd AF|GBAG FGEF|
(3DDD FD EFGB|(3AAA ec dcAG|FAdA (3Bcd eg|1 fdec dBAF:|2 fdec defg||
afdc Bggf|edcB ADFG|Adcd Bcdg|fagf (3eee fg|
afdc Bggf|edcB ADFG|Adcd (3Bcd eg|1 fdec defg:|2 fdec dBAF||

